X:1
T:Title
%%score { ( 1 3 ) | ( 2 4 ) }
L:1/8
M:4/4
K:D
V:1 treble nm="Grand Piano"
V:3 treble 
V:2 bass 
V:4 bass 
V:1
 z4 z2[Q:1/4=100] [FA]>[FA] | [FA]2 F2 E2 D2 | F2 [FA]4 [FA]>[FA] | B2 d2 d3 B | [FA]6 [DA]>[DA] | %5
 [CA]2 [CE]2 [CE]2 [EG]2 | [EG]2 F4 A>A | [CA]2 [CE]2 [DF]2 [EG]2 | F6 A>A | B2 d2 c2 B2 | %10
 B2 A4 A>A | B2 B2 D2 E2 | F6 G>G | F2 F2 E2 D2 | B2 d4 D>E | F2 A2 [CA]2 EF |[M:3/4] D6 | %17
[M:1/4][Q:1/4=106] A2 |[M:4/4] A6 z2 | B6 z2 | [FA]2 [Fd]>[Fd] [Fd]2 [A,DF]2 | [A,CE]6 [A,EG]2 | %22
 [A,DF]2 [A,DF]>[A,EG] [FA]2 [FA]>[FA] |[M:9/8] B2 B- B d2- dD>E |[M:4/4] F2 A2 [CA]2 C-[CF] | %25
[M:3/4] D6 |] %26
V:2
 z4 z2 [D,D]>[D,D] | [D,D]2 [D,A,D]2 [D,G,A,]2 [D,F,A,]2 | [D,A,D]2 [D,D]4 [D,D]>[D,D] | %3
 [G,DG]2 [G,B,G]2 [G,B,G]3 [G,DG] | [D,D]6 [D,F,]>[D,F,] | [A,,E,]2 [A,,A,]2 [A,,A,]2 [A,,A,]2 | %6
 [D,A,]2 [D,A,D]4 [D,F,D]>[D,F,D] | [A,,E,]2 [A,,A,]2 [A,,A,]2 [A,,A,]2 | %8
 [D,A,D]6 [D,F,D]>[D,F,D] | [G,D]2 [G,B,D]2 [G,A,D]2 [G,D]2 | [D,G,D]2 [D,F,D]4 [D,F,D]>[D,F,D] | %11
 [G,D]2 [G,D]2 [G,B,]2 [G,B,]2 | [F,^A,C]6 [E,=A,C]>[E,A,C] | [D,A,D]2 [D,A,D]2 [D,G,C]2 [D,F,]2 | %14
 [G,D]2 [G,B,D]4 [F,A,]>[G,B,D] | [A,D]2 [F,A,D]2 [A,,E,]2 [A,,G,]2 |[M:3/4] [D,F,A,]6 | %17
[M:1/4][K:treble] F2 |[M:4/4] F6[K:bass][K:treble] z2 | G6 z2 | [D,D]2 [D,A,]>[D,A,] [D,A,]2 D,2 | %21
 A,,2 A,,2 A,,2 A,,2 | D,2 D,>D, [D,D]2 [D,D]>[D,D] | %23
[M:9/8][K:treble] [G,DG]2 [G,DG]- [G,DG] [G,B,G]2- [G,B,G][K:bass][F,A,]>[G,B,D] | %24
[M:4/4] [A,D]2 [F,A,D]2 [A,,E,]2 [A,,G,]2 |[M:3/4] [D,F,A,]6 |] %26
V:3
 x8 | x8 | x8 | x8 | x8 | x8 | x8 | x8 | x8 | x8 | x8 | x8 | x8 | x8 | x8 | z4 z2 C2 |[M:3/4] x6 | %17
[M:1/4] x2 |[M:4/4] z2 D2 D2 A2 | z2 D2 D2 B>B | x8 | x8 | x8 |[M:9/8] x9 |[M:4/4] z4 z2 .E2 | %25
[M:3/4] x6 |] %26
V:4
 x8 | x8 | x8 | x8 | x8 | x8 | x8 | x8 | x8 | x8 | x8 | x8 | x8 | x8 | x8 | x8 |[M:3/4] x6 | %17
[M:1/4][K:treble] x2 |[M:4/4] z2[K:bass] D,2 D,2[K:treble] F2 | z2 G,2 G,2 [G,DG]>[G,DG] | x8 | %21
 x8 | x8 |[M:9/8][K:treble] x7[K:bass] x2 |[M:4/4] x8 |[M:3/4] x6 |] %26

